X:1105
T:One Bottle more.
M:3/8
L:1/16
Q:3/8=80
N:bar 6 is printed as |d2B2G2 FG|
I: ::
Z:Jack Campin * www.campin.me.uk * 2009
K:G
G2|G2B2d2|d3`BG2   | G2``c2``e2 | e4
dc|B2d2g2|dBG2 FG| AF  D2``D2 | D4
D2|G2GAGF|E2F2G2   |(AB)(cd)(ef)|Hg4
fe|d2f2g2|agfedc   | B2``G2``G2 | G3B
dB|AFD2D2|D4     FG| AB``cd``ef |Hg4
fe|d2f2g2|agfedc   | B2``G2``G2 | G4|]

